!!!OTL: ICH WEISS EIN JAEGER
!!!ARE: Europa, Mitteleuropa, Deutschland, Regensburg
!!!SCT: E0019E
!!!YEM: Copyright 1995, estate of Helmut Schaffrath.
**kern
*ICvox
*Ivox
*M6/8
*k[b-e-]
*B-:
{8f
=1
4b-
8dd
8.dd
16cc
8b-
=2
4a
8cc
4.cc}
=3
{8.b-
16cc
8dd
8dd
8cc
8b-
=4
2cc
8r}
{8b-
=5
4dd
8ff
8.ff
16ee-
8dd
=6
4cc
8ee-
4.ee-}
=7
{8.dd
16dd
8dd
8dd
8cc
8b-
=8
4a
8cc
4.cc}
=9
{8.b-
16cc
8dd
8dd
8cc
8cc
=10
2b-
8r}
==
!!!AGN: Sage, Maerchen -, Zauber - Lied, Ballade ?
!!!ONB: ESAC (Essen Associative Code) Database: ERK1
!!!AMT: compound duple
!!!AIN: vox
!!!EED: Helmut Schaffrath
!!!EEV: 1.0
*-
